X:1
T:Title
%%score { ( 1 3 ) | ( 2 4 ) }
L:1/8
Q:1/4=106
M:3/4
K:Ab
V:1 treble nm="Grand Piano"
V:3 treble 
V:2 bass 
V:4 bass 
V:1
 [Ec]2 [=D_c]2 [E=c]2 | [CA]6 | B2 A2 F2 | [CE]6 | [CE]2 [CA]2 [DB]2 | [Ec]3 [=DB] [DA]2 | %6
w: Arthur~F.~Ingler * *||||||
[M:7/8] B-B-B- B- B2- B/ z/ |[M:3/4] [Ec]2 [=D_c]2 [E=c]2 | [CA]6 | B2 A2 F2 | [CE]6 | %11
w: |||||
 [CE]2 [CA]2 [DB]2 | [Ec]3 [CA] [DB]2 | [CA]6 |[M:6/8] [Fd][Fd]>[Fd] .[Fd]3 | %15
w: ||||
 [Ec][Ec]>[Ec] .[Ec]3 | BB>B c2 B | A3 z3 | [Fd][Fd]>[Fd] .[Fd]3 | [Ec][Ec]>[Ec] .[Ec]3 | %20
w: |||||
 BB>B c2 B | [CA]6 |] %22
w: ||
V:2
 [A,,E,]2 [A,,F,]2 [A,,A,]2 | [A,,E,]6 | [D,F,D]2 [D,F,D]2 [D,A,D]2 | [A,,A,]6 | %4
 [A,,A,]2 [C,A,]2 [E,G,]2 | [A,,A,]3 [B,,F,] [B,,B,]2 |[M:7/8] [E,G,E]2 [F,A,]2 [G,B,]3 | %7
[M:3/4] [A,,A,]2 [A,,F,]2 [A,,A,]2 | [A,,E,]6 | [D,F,D]2 [D,F,D]2 [D,A,D]2 | [A,,A,]6 | %11
 [A,,A,]2 [C,A,]2 [E,G,]2 | [A,,A,]3 [A,,E,] [E,G,]2 | [A,,E,]6 | %14
[M:6/8] [D,A,][D,A,]>[D,A,] .[D,A,]3 | [A,,A,][A,,A,]>[A,,A,] .[A,,A,]3 | %16
 [E,G,D][E,G,D]>[E,G,D] [E,A,E]2 [E,,E,G,D] | E,3 z3 | [D,A,][D,A,]>[D,A,] .[D,A,]3 | %19
 [A,,A,][A,,A,]>[A,,A,] .[A,,A,]3 | [E,G,D][E,G,D]>[E,G,D] [E,A,E]2 [E,,E,G,D] | [A,,E,A,]6 |] %22
V:3
 x6 | x6 | x6 | x6 | x6 | x6 |[M:7/8] z2 =D2 _D3 |[M:3/4] x6 | x6 | x6 | x6 | x6 | x6 | x6 | %14
[M:6/8] x6 | x6 | x6 | C3- [A,CE]3 | x6 | x6 | x6 | x6 |] %22
V:4
 x6 | x6 | x6 | x6 | x6 | x6 |[M:7/8] x7 |[M:3/4] x6 | x6 | x6 | x6 | x6 | x6 | x6 |[M:6/8] x6 | %15
 x6 | x6 | A,,6 | x6 | x6 | x6 | x6 |] %22

